icons/ancient-pavilion-line.svg

<svg xmlns="http://www.w3.org/2000/svg" width="24" height="24" fill="none"><g clip-path="url(#a)"><g><path fill="#121212" d="M12.513 2.00098C13.2191 3.9961 14.6055 5.67872 16.4287 6.75344C18.2519 7.82817 20.3955 8.22631 22.483 7.87798C22.4028 8.82939 22.0221 9.73066 21.396 10.4515C20.7699 11.1723 19.9308 11.6754 19 11.888V19L21 19.001V21.001H3V19.001H5V11.888C4.06913 11.6753 3.22997 11.1722 2.60372 10.4514C1.97747 9.73064 1.59655 8.82942 1.516 7.87798C3.60372 8.22688 5.74762 7.82913 7.57124 6.75456C9.39486 5.67999 10.7816 3.9973 11.488 2.00198H12.513V2.00098ZM17 12H7V19H17V12ZM12 5.32698L11.89 5.48198C10.3145 7.64048 8.00784 9.15243 5.4 9.73598L5.042 9.80898L5.715 9.99898H18.288L18.956 9.80898L18.945 9.80698C16.1999 9.2847 13.7561 7.73821 12.109 5.48098L12 5.32598V5.32698Z"/></g></g><defs><clipPath id="a"><rect width="24" height="24" fill="white"/></clipPath></defs></svg>

<svg width="24" height="24" fill="none" xmlns="http://www.w3.org/2000/svg"><g clip-path="url(#a)"><path d="M12.513 2.001a9.004 9.004 0 0 0 9.97 5.877A4.501 4.501 0 0 1 19 11.888V19l2 .001v2H3v-2h2v-7.113a4.503 4.503 0 0 1-3.484-4.01 9.004 9.004 0 0 0 9.972-5.876h1.025v-.001ZM17 12H7v7h10v-7Zm-5-6.673-.11.155A11.012 11.012 0 0 1 5.4 9.736l-.358.073.673.19h12.573l.668-.19-.011-.002a11.01 11.01 0 0 1-6.836-4.326L12 5.326v.001Z" /></g><defs><clipPath id="a"><path fill="#fff" d="M0 0h24v24H0z"/></clipPath></defs></svg>
